icon-svg/go.svg

<?xml version="1.0" encoding="UTF-8"?>
<svg width="32px" height="32px" viewBox="0 0 32 32" version="1.1" fill="#44739e" xmlns="http://www.w3.org/2000/svg" xmlns:xlink="http://www.w3.org/1999/xlink">
            <path d="M22.869,21.0120507 C19.01,18.2850507 13.734,13.0070507 11.007,9.14205068 C8.24,5.22405068 9.082,4.16705068 12.97,6.86505068 C16.912,9.60005068 22.395,15.0870507 25.132,19.0350507 C27.831,22.9290507 26.781,23.7770507 22.869,21.0120507 M26.5,18.6890507 C23.719,14.1410507 17.855,8.27405068 13.315,5.49405068 C11.162,4.17705068 9.67,3.73605068 8.97,4.15005068 C5.984,6.57405068 4,10.6230507 4,14.7710507 C4,18.8930507 5.885,22.5740507 8.838,24.9990507 L8.5,24.9990507 C7.675,24.9990507 7,25.6740507 7,26.4990507 C7,27.3240507 7.675,27.9990507 8.5,27.9990507 L16.371,27.9990507 C16.468,27.9990507 16.561,27.9890507 16.652,27.9710507 C16.842,27.9790507 17.028,27.9990507 17.219,27.9990507 C21.309,27.9990507 25.427,25.9640507 27.851,23.0440507 C28.264,22.3410507 27.819,20.8450507 26.5,18.6890507"></path>
</svg>

<svg xmlns="http://www.w3.org/2000/svg" fill="#44739e" viewBox="0 0 24 24"><path d="M22.869 21.012c-3.859-2.727-9.135-8.005-11.862-11.87C8.24 5.224 9.082 4.167 12.97 6.865c3.942 2.735 9.425 8.222 12.162 12.17 2.699 3.894 1.649 4.742-2.263 1.977m3.631-2.323c-2.781-4.548-8.645-10.415-13.185-13.195C11.162 4.177 9.67 3.736 8.97 4.15 5.984 6.574 4 10.623 4 14.771c0 4.122 1.885 7.803 4.838 10.228H8.5c-.825 0-1.5.675-1.5 1.5s.675 1.5 1.5 1.5h7.871c.097 0 .19-.01.281-.028.19.008.376.028.567.028 4.09 0 8.208-2.035 10.632-4.955.413-.703-.032-2.199-1.351-4.355"/></svg>
